assets/img/linkedin-solo.svg

<svg height="18" viewBox="0 0 18 18" width="18" xmlns="http://www.w3.org/2000/svg"><path d="m5.49 4.19565217c0 .66047826-.555 1.19565218-1.24 1.19565218s-1.24-.53517392-1.24-1.19565218c0-.66.555-1.19565217 1.24-1.19565217s1.24.53565217 1.24 1.19565217zm.01 2.15217392h-2.5v7.65217391h2.5zm3.991 0h-2.484v7.65217391h2.4845v-4.01691304c0-2.23347826 3.0145-2.41617392 3.0145 0v4.01691304h2.494v-4.84526087c0-3.76869565-4.461-3.63143478-5.509-1.77626087z"/><path d="m0 0h18v18h-18z" fill="none"/></svg>

<svg width="18px" height="18px" viewBox="0 0 18 18" version="1.1" xmlns="http://www.w3.org/2000/svg" xmlns:xlink="http://www.w3.org/1999/xlink">
    <title>LinkedIn</title>
    <path d="M5.49,4.19565217 C5.49,4.85613043 4.935,5.39130435 4.25,5.39130435 C3.565,5.39130435 3.01,4.85613043 3.01,4.19565217 C3.01,3.53565217 3.565,3 4.25,3 C4.935,3 5.49,3.53565217 5.49,4.19565217 Z M5.5,6.34782609 L3,6.34782609 L3,14 L5.5,14 L5.5,6.34782609 Z M9.491,6.34782609 L7.007,6.34782609 L7.007,14 L9.4915,14 L9.4915,9.98308696 C9.4915,7.7496087 12.506,7.56691304 12.506,9.98308696 L12.506,14 L15,14 L15,9.15473913 C15,5.38604348 10.539,5.52330435 9.491,7.37847826 L9.491,6.34782609 Z" id="Shape" fill="#000000"></path>
    <rect id="Rectangle" fill="none" x="0" y="0" width="18" height="18"></rect>
</svg>
